X:1
T:Buxtehude - Aria:  La Capricciosa in G Minor.
%%score { ( 1 4 ) | ( 2 3 ) }
L:1/8
Q:1/4=100
M:3/8
K:G
V:1 treble nm="Harpsichord" snm="Hch."
V:4 treble 
V:2 bass 
V:3 bass 
V:1
"^Partita 29" z dB | e2 e | d2 c | z Bc | d2 z | EFG | DEC | B,3 :: B>cd | z cB | A>dc | B2 A | %12
 G>AB | z AG | G>GF | G3 :| %16
V:2
 B,2 D | z z C | B,2 A, | z G,A, | B,3 | A,2 G,- | G,2 F, | G,2 D, :: G,>A,B, | E,A,G, | F,2 D, | %11
 z D2 | E,2 B,, | C,2 B,, | A,,2 A,, | z G,2 :| %16
V:3
 G,3 | C,3 | D,3 | E,3 | z z B,, | C,3 | D,3 | z G,,2 :: x3 | x3 | x3 | G,2 F, | x3 | x3 | x3 | %15
 G,,2 G,, :| %16
V:4
 x3 | z BA- | AGF | G3 | z D2 | C2 B,- | B,2 A, | G,3 :: G3 | G x2 | x3 | G2 z | z z D | E2 D | %14
 C3 | [B,D]3 :| %16

